X:175
T:Ormond the brave - Peake
%%VWML:SBG-1-2-370-0
F:http://www.vwml.org/record/SBG/1/2/370
Z:Original Sibelius transcriptions by M. & S. Graebe
M:4/4
I:linebreak $
K:C
V:1 treble nm="P1"
V:1
 GA | BA BG E2 EF | GF GA B2 d2 | d2 dd ed cB | cA GF G2 d2 | d2 dd d2 dd |$ eE EF G2 EF | %7
 G2 AB cd e A | A2 B^c !fermata!d2 BA | BG FED!fermata!c BA | B2 GE E2 z x | %11

